X: 456
U:~=!turn!
M:C
L:1/8
K:D
{/c}d<B A>F {FE}D2 D :: g | f<ad<f e<cd<B | A<Fd<F E2 E<g |
f<ad<f e>c{/d}d>B | AFdF D2 D :: F | A,>D (G/2F/2E/2D/2) A>D (G/2F/2E/2D/2) | A>d (B/2A/2G/2F/2) E2 E>F |
[1 f<dA>d e<cA<F | G<BA<F {FE}D2D :|[2 f>de>c {/c}d<BA<F | A<F{/c}d<F {FE}D2 D |]


